X:951
T:Heroes of Longhope #1
C:Joe Buchanan's Scottish Tome - Page 554.0
I:554 0
Z:Carl Allison
R:Waltz
L:1/4
M:3/4
K:F
B, C | !4!D c2 | A2 G | F G,2 | F2 E | D F2 | D !4!D2 | !4!D3 |
c2 c | d2 c | A F2 | !4!D2 B, | A,2 G | G2 F | E3 | c2 B |
A c2 | GA2  | F G,2 | F2 E | D F2 | F2 D | D !4!D2- | !4!D B, C |
!4!D F2 | d2 c | A !4!D2 | A2 G | F3- | F3 | z :|
E2 F | G !4!D2 | E2 G | B d2 | c2 B | A2 G | A2 B | c3- | c3 | 
^B A2 | ^B c | d3 | g2 f | e2 f | e2 d | c3 | c2 B |
A c2 | A2 G | F G,2 | F2 E | D F2 | F2 D | D !4!D2- | !4!D B, C |
!4!D F2 | d2 c | A !4!D2 | A2 G | F3- | F3 | F3 | z :|
%
W:Tune G string down to F and use the 4th finger where indicated 4

